X:493
T:Slngpolska frn Skralid
T:("Efter fadern", SvL Skne nr. 493)
S:efter Per Joel Berndtsson
S:Svenska Ltar Skne
B:Svenska Ltar Skne
R:Polska
Z:Patrik Mnsson, 2009-01-03
O:Skralid, Skne
M:3/4
L:1/16
K:G
|: d2(gd) B2(dB) G2B2 | A2(cA) F2(AF) D4 |(GF)GB (AG)AB (cB)ce | 
(ed)Bd (dc)Ac (c2B2) | d2(gd) B2(dB) G2B2 | A2(cA) F2(AF) D4 |
(GF)GB (AG)AB cBce | (ed)cA A4 G4 :: D2GG G2B2 d2B2 | 
{c}B2AA A2c2 e4 | d2cd e2f2 g2e2 |(ed)Bd (dc)Ac c2B2 | 
D2GG G2B2 d2B2 | {c}B2AA A2c2 e4 | d2cd e2f2 g2e2 | (ed)cA A4 G4 :|
